status/symbolic/appointment-soon-symbolic.svg

<?xml version="1.0" encoding="UTF-8" standalone="no"?>
<svg
   id="svg8"
   version="1.1"
   width="16"
   height="16"
   xmlns="http://www.w3.org/2000/svg"
   xmlns:svg="http://www.w3.org/2000/svg"
   xmlns:rdf="http://www.w3.org/1999/02/22-rdf-syntax-ns#"
   xmlns:cc="http://creativecommons.org/ns#"
   xmlns:dc="http://purl.org/dc/elements/1.1/">
  <metadata
     id="metadata14">
    <rdf:RDF>
      <cc:Work
         rdf:about="">
        <dc:format>image/svg+xml</dc:format>
        <dc:type
           rdf:resource="http://purl.org/dc/dcmitype/StillImage" />
      </cc:Work>
    </rdf:RDF>
  </metadata>
  <defs
     id="defs12" />
  <path
     id="path2"
     d="M 7.5 0 C 3.37 0 0 3.37 0 7.5 C 0 11.63 3.37 15 7.5 15 C 7.718 15 7.9305313 14.984797 8.1445312 14.966797 C 8.1615313 14.928797 8.1684531 14.888563 8.1894531 14.851562 L 9.4414062 12.644531 A 5.504 5.504 0 0 1 7.5 13 C 4.45 13 2 10.55 2 7.5 C 2 4.45 4.45 2 7.5 2 A 5.485 5.485 0 0 1 12.847656 8.7734375 C 13.222656 8.8674375 13.553 9.1090781 13.75 9.4550781 L 14.355469 10.523438 A 7.436 7.436 0 0 0 15 7.5 C 15 3.37 11.63 0 7.5 0 z M 10.464844 4.0019531 A 0.5 0.5 0 0 0 10.416016 4.0058594 A 0.425 0.425 0 0 0 10.392578 4.0097656 L 10.392578 4.0175781 A 0.5 0.5 0 0 0 10.142578 4.1738281 L 7.4863281 6.8222656 L 5.8300781 5.1738281 A 0.5 0.5 0 1 0 5.1425781 5.8613281 L 7.1425781 7.8613281 A 0.5 0.5 0 0 0 7.8300781 7.8613281 L 10.830078 4.8613281 A 0.5 0.5 0 0 0 10.464844 4.0019531 z "
     style="color:#000000;font-weight:400;line-height:normal;font-family:sans-serif;font-variant-ligatures:normal;font-variant-position:normal;font-variant-caps:normal;font-variant-numeric:normal;font-variant-alternates:normal;font-feature-settings:normal;text-indent:0;text-align:start;text-decoration:none;text-decoration-line:none;text-decoration-style:solid;text-decoration-color:#000000;text-transform:none;text-orientation:mixed;white-space:normal;shape-padding:0;overflow:visible;isolation:auto;mix-blend-mode:normal;fill:#555761" />
  <path
     class="warning"
     d="m 12.48,9.729 a 0.44,0.44 0 0 0 -0.36,0.22 L 9.059,15.346 A 0.437,0.437 0 0 0 9.438,16 h 6.125 a 0.437,0.437 0 0 0 0.379,-0.654 L 12.882,9.949 A 0.439,0.439 0 0 0 12.481,9.729 Z M 12,11 h 1 v 2 h -1 z m 0,3 h 1 v 1 h -1 z"
     font-weight="400"
     overflow="visible"
     style="color:#000000;font-weight:400;line-height:normal;font-family:sans-serif;text-indent:0;text-align:start;text-decoration:none;text-decoration-line:none;text-decoration-style:solid;text-decoration-color:#000000;text-transform:none;white-space:normal;overflow:visible;isolation:auto;mix-blend-mode:normal;fill:#f9c440;fill-rule:evenodd"
     id="path4" />
</svg>

<svg
        xmlns='http://www.w3.org/2000/svg'
        xmlns:svg='http://www.w3.org/2000/svg'
        id='svg8'
        width='16'
        height='16'>
  <path
          id='path2'
          color='rgb(0,0,0)'
          font-family='sans-serif'
          font-weight='400'
          fill='url(#gpa:foreground) #555761'
          fill-opacity='1'
          fill-rule='nonzero'
          overflow='visible'
          d='M 7.5 0 C 3.37 0, 0 3.37, 0 7.5 C 0 11.63, 3.37 15, 7.5 15 C 7.718 15, 7.93053 14.9848, 8.14453 14.9668 C 8.16153 14.9288, 8.16845 14.8886, 8.18945 14.8516 L 9.44141 12.6445 A 5.504 5.504 0 0 1 7.5 13 C 4.45 13, 2 10.55, 2 7.5 C 2 4.45, 4.45 2, 7.5 2 A 5.485 5.485 0 0 1 12.8477 8.77344 C 13.2227 8.86744, 13.553 9.10908, 13.75 9.45508 L 14.3555 10.5234 A 7.436 7.436 0 0 0 15 7.5 C 15 3.37, 11.63 0, 7.5 0 Z M 10.4648 4.00195 A 0.5 0.5 0 0 0 10.416 4.00586 A 0.425 0.425 0 0 0 10.3926 4.00977 L 10.3926 4.01758 A 0.5 0.5 0 0 0 10.1426 4.17383 L 7.48633 6.82227 L 5.83008 5.17383 A 0.5 0.5 0 1 0 5.14258 5.86133 L 7.14258 7.86133 A 0.5 0.5 0 0 0 7.83008 7.86133 L 10.8301 4.86133 A 0.5 0.5 0 0 0 10.4648 4.00195 Z'
          text-decoration=''
          class="foreground"
          style='mix-blend-mode: normal; isolation: auto'>
  </path>
  <path
          id='path4'
          color='rgb(0,0,0)'
          font-family='sans-serif'
          font-weight='400'
          fill='url(#gpa:warning) #f9c440'
          fill-opacity='1'
          fill-rule='evenodd'
          stroke='none'
          overflow='visible'
          d='M 12.48 9.729 A 0.44 0.44 0 0 0 12.12 9.949 L 9.059 15.346 A 0.437 0.437 0 0 0 9.438 16 L 15.563 16 A 0.437 0.437 0 0 0 15.942 15.346 L 12.882 9.949 A 0.439 0.439 0 0 0 12.481 9.729 Z M 12 11 L 13 11 L 13 13 L 12 13 Z M 12 14 L 13 14 L 13 15 L 12 15 Z'
          text-decoration=''
          class="warning"
          style='mix-blend-mode: normal; isolation: auto'>
  </path>
</svg>
